packages/web-icons/svgs/search.svg

<svg viewBox="0 0 48 49" xmlns="http://www.w3.org/2000/svg" class="ridi_icon"><path d="M46.7 40.8L36.4 30.4c2-3.1 3.1-6.7 3.1-10.6C39.5 8.8 30.7 0 19.7 0S0 8.8 0 19.8c0 10.9 8.8 19.8 19.8 19.8 3.9 0 7.6-1.2 10.6-3.1l10.4 10.4c.8.8 1.9 1.2 3 1.2s2.2-.4 3-1.2c1.6-1.8 1.6-4.5-.1-6.1zm-27-7.7c-7.3 0-13.3-6-13.3-13.3 0-7.3 6-13.3 13.3-13.3C27 6.5 33 12.4 33 19.8c0 7.3-5.9 13.3-13.3 13.3z"/></svg>

<?xml version="1.0" encoding="UTF-8"?>
<svg width="48px" height="49px" viewBox="0 0 48 49" version="1.1" xmlns="http://www.w3.org/2000/svg">
  <!-- Generator: Sketch 41.2 (35397) - http://www.bohemiancoding.com/sketch -->
  <title>search</title>
  <desc>Created with Sketch.</desc>
  <defs></defs>
  <g id="Page-1" stroke="none" stroke-width="1" fill="none" fill-rule="evenodd">
    <g id="search" fill="#000000">
      <g id="레이어_1">
        <path d="M46.7,40.8 L36.4,30.4 C38.4,27.3 39.5,23.7 39.5,19.8 C39.5,8.8 30.7,0 19.7,0 C8.7,0 0,8.8 0,19.8 C0,30.7 8.8,39.6 19.8,39.6 C23.7,39.6 27.4,38.4 30.4,36.5 L40.8,46.9 C41.6,47.7 42.7,48.1 43.8,48.1 C44.9,48.1 46,47.7 46.8,46.9 C48.4,45.1 48.4,42.4 46.7,40.8 L46.7,40.8 Z M19.7,33.1 C12.4,33.1 6.4,27.1 6.4,19.8 C6.4,12.5 12.4,6.5 19.7,6.5 C27,6.5 33,12.4 33,19.8 C33,27.1 27.1,33.1 19.7,33.1 Z" id="Shape"></path>
      </g>
    </g>
  </g>
</svg>
